flags/yorubaland.svg

<svg width="512" height="512" viewBox="0 0 512 512" fill="none" xmlns="http://www.w3.org/2000/svg">
<path d="M512 0V512H0.00030365L0.015625 0H512Z" fill="var(--flag-palette-green, #6da544)"/>
<path d="M0 512L-4.47605e-05 4.47605e-05L512 0L0 512Z" fill="var(--flag-palette-light-blue, #338af3)"/>
<path d="M512 112V0H400L0 400V512H112L512 112Z" fill="var(--flag-palette-white, #eeeeee)"/>
<path d="M432 234L426 245H413L419 256L413 267H426L432 278L438 267H451L445 256L451 245H438L432 234ZM418 166L412 177H399L405 188L399 198H412L418 210L424 198H437L431 188L437 177H425L418 166ZM381 110L374 121H362L368 132L362 142H374L381 154L387 142H400L393 132L400 121H387L381 110ZM325 72L318 83H306L312 94L306 105H318L325 116L331 105H344L337 94L344 83H331L325 72ZM256 58L250 69H237L243 80L237 91H250L256 102L262 91H275L269 80L275 69H262L256 58ZM188 72L181 83H168L175 94L169 105H181L188 116L194 105H207L200 94L207 83H194L188 72ZM132 110L125 121H112L119 132L112 142H125L132 154L138 142H151L144 132L151 121H138L132 110ZM94 166L87 177H75L81 188L75 198H87L94 210L100 198H113L106 188L113 177H100L94 166ZM80 234L74 245H61L67 256L61 267H74L80 278L86 267H99L93 256L99 245H86L80 234ZM94 303L87 314H75L81 325L75 335H87L94 346L100 335H113L106 324L113 314H100L94 303ZM132 359L125 370H112L119 381L112 391H125L132 402L138 391H151L144 380L151 370H138L132 359ZM188 396L181 407H168L175 418L169 429H181L188 440L194 429H207L200 418L207 407H194L188 396ZM256 410L250 421H237L243 432L237 443H250L256 454L262 443H275L269 432L275 421H262L256 410ZM325 396L318 407H306L312 418L306 429H318L325 440L331 429H344L337 418L344 407H331L325 396ZM381 359L374 370H362L368 381L362 391H374L381 402L387 391H400L393 380L400 370H387L381 359ZM418 303L412 314H399L405 325L399 335H412L418 346L424 335H437L431 324L437 314H424L418 303ZM256 165C253 165 250 168 250 171V191C240.994 192.061 232.805 195.473 226.93 200.613C221.055 205.754 217.886 212.28 218 219C218.128 220.685 218.463 222.359 219 224L222 247C221.974 256.519 223.533 265.879 226.518 274.133C229.504 282.387 233.81 289.241 239 294V316H273V294C278.19 289.241 282.496 282.387 285.482 274.133C288.467 265.879 290.026 256.519 290 247L293 224C293.537 222.359 293.872 220.685 294 219C294.114 212.28 290.945 205.754 285.07 200.613C279.195 195.473 271.006 192.061 262 191V171C262 168 259 165 256 165Z" fill="var(--flag-palette-dark-yellow, #ffc635)"/>
<path d="M199 199C187.934 210.236 180.437 224.493 177.449 239.977C174.461 255.462 176.117 271.484 182.207 286.031C188.298 300.578 198.553 313 211.682 321.736C224.811 330.473 240.23 335.134 256 335.134C271.77 335.134 287.189 330.473 300.318 321.736C313.448 313 323.702 300.578 329.793 286.031C335.883 271.484 337.539 255.462 334.551 239.977C331.563 224.493 324.066 210.236 313 199L296 216C301.176 221.281 305.254 227.534 308 234.4C310.747 241.265 312.106 248.606 312 256C312 270.852 306.1 285.096 295.598 295.598C285.096 306.1 270.852 312 256 312C241.148 312 226.904 306.1 216.402 295.598C205.9 285.096 200 270.852 200 256C199.894 248.606 201.253 241.265 204 234.4C206.746 227.534 210.824 221.281 216 216L199 199Z" fill="var(--flag-palette-bright-red, #d80027)"/>
</svg>

<svg xmlns="http://www.w3.org/2000/svg" width="512" height="512" fill="none"><g clip-path="url(#a)"><path fill="var(--flag-palette-green, #6da544)" d="M512 0v512H0V0z"/><path fill="var(--flag-palette-light-blue, #338af3)" d="M0 512V0h512z"/><path fill="#EEE" d="M512 112V0H400L0 400v112h112z"/><path fill="var(--flag-palette-dark-yellow, #ffc635)" d="m432 234-6 11h-13l6 11-6 11h13l6 11 6-11h13l-6-11 6-11h-13zm-14-68-6 11h-13l6 11-6 10h13l6 12 6-12h13l-6-10 6-11h-12zm-37-56-7 11h-12l6 11-6 10h12l7 12 6-12h13l-7-10 7-11h-13zm-56-38-7 11h-12l6 11-6 11h12l7 11 6-11h13l-7-11 7-11h-13zm-69-14-6 11h-13l6 11-6 11h13l6 11 6-11h13l-6-11 6-11h-13zm-68 14-7 11h-13l7 11-6 11h12l7 11 6-11h13l-7-11 7-11h-13zm-56 38-7 11h-13l7 11-7 10h13l7 12 6-12h13l-7-10 7-11h-13zm-38 56-7 11H75l6 11-6 10h12l7 12 6-12h13l-7-10 7-11h-13zm-14 68-6 11H61l6 11-6 11h13l6 11 6-11h13l-6-11 6-11H86zm14 69-7 11H75l6 11-6 10h12l7 11 6-11h13l-7-11 7-10h-13zm38 56-7 11h-13l7 11-7 10h13l7 11 6-11h13l-7-11 7-10h-13zm56 37-7 11h-13l7 11-6 11h12l7 11 6-11h13l-7-11 7-11h-13zm68 14-6 11h-13l6 11-6 11h13l6 11 6-11h13l-6-11 6-11h-13zm69-14-7 11h-12l6 11-6 11h12l7 11 6-11h13l-7-11 7-11h-13zm56-37-7 11h-12l6 11-6 10h12l7 11 6-11h13l-7-11 7-10h-13zm37-56-6 11h-13l6 11-6 10h13l6 11 6-11h13l-6-11 6-10h-13zM256 165c-3 0-6 3-6 6v20c-9 1-17.2 4.5-23 9.6a24 24 0 0 0-9 18.4q.2 2.6 1 5l3 23a80 80 0 0 0 4.5 27.1q4.6 12.6 12.5 19.9v22h34v-22a50 50 0 0 0 12.5-19.9A80 80 0 0 0 290 247l3-23q.8-2.4 1-5a24 24 0 0 0-9-18.4c-5.8-5.1-14-8.5-23-9.6v-20c0-3-3-6-6-6"/><path fill="var(--flag-palette-bright-red, #d80027)" d="M199 199a80 80 0 1 0 114 0l-17 17a56 56 0 0 1 16 40 56 56 0 0 1-112 0 56 56 0 0 1 16-40z"/></g><defs><clipPath id="a"><path fill="#fff" d="M0 0h512v512H0z"/></clipPath></defs></svg>
